apps/mobile/src/assets/images/arrow-down.svg

<svg width="20" height="92" viewBox="0 0 20 92" fill="none" xmlns="http://www.w3.org/2000/svg">
<path d="M8.66744 1.34306V87.7828L2.85411 82.9074C2.58182 82.6795 2.23078 82.5698 1.87821 82.6025C1.52564 82.6353 1.20043 82.8078 0.974108 83.082C0.74779 83.3563 0.638907 83.7099 0.671413 84.0651C0.70392 84.4202 0.875152 84.7478 1.14744 84.9758L9.14744 91.6911C9.21107 91.7363 9.27792 91.7767 9.34744 91.812C9.41411 91.812 9.45411 91.812 9.52078 91.906C9.67365 91.9669 9.83639 91.9987 10.0008 92C10.1652 91.9987 10.3279 91.9669 10.4808 91.906C10.5474 91.906 10.5874 91.906 10.6541 91.812C10.7236 91.7767 10.7905 91.7363 10.8541 91.6911L18.8541 84.9758C19.0046 84.8495 19.1257 84.6914 19.2086 84.5126C19.2916 84.3339 19.3344 84.1389 19.3341 83.9416C19.3347 83.6278 19.2262 83.3237 19.0274 83.082C18.9155 82.946 18.778 82.8336 18.6229 82.7512C18.4678 82.6688 18.298 82.6181 18.1234 82.6018C17.9488 82.5856 17.7727 82.6043 17.6052 82.6567C17.4377 82.7092 17.2822 82.7944 17.1474 82.9074L11.3341 87.7828L11.3341 1.34306C11.3341 0.986861 11.1936 0.645248 10.9436 0.393374C10.6935 0.141501 10.3544 -1.55701e-08 10.0008 0C9.64715 1.55701e-08 9.30801 0.141501 9.05797 0.393374C8.80792 0.645248 8.66744 0.986861 8.66744 1.34306Z" fill="white" fill-opacity="0.3"/>
</svg>

<svg width="20" height="92" viewBox="0 0 20 92" fill="none" xmlns="http://www.w3.org/2000/svg"><path d="M8.667 1.343v86.44l-5.813-4.876a1.329 1.329 0 0 0-1.88.175 1.352 1.352 0 0 0 .173 1.894l8 6.715c.064.045.13.086.2.121.067 0 .107 0 .174.094.153.06.315.093.48.094.164-.001.327-.033.48-.094.066 0 .106 0 .173-.094a1.68 1.68 0 0 0 .2-.12l8-6.716a1.341 1.341 0 0 0 .48-1.034 1.35 1.35 0 0 0-.711-1.19 1.328 1.328 0 0 0-1.476.155l-5.813 4.876V1.343c0-.356-.14-.698-.39-.95a1.329 1.329 0 0 0-1.886 0 1.35 1.35 0 0 0-.39.95Z" fill="#fff" fill-opacity=".3"/></svg>
